X:1
T:Dear pity, how - Wilbye
T:#
%%score { 1 | 2 } 3 { ( 4 5 ) | 6 }
L:1/8
Q:1/4=108
M:4/4
K:F
V:1 treble nm="Soprano I" snm="S"
V:2 treble 
V:3 treble-8 nm="Tenor" snm="T"
V:4 treble nm="Midi_7"
V:5 treble 
V:6 bass 
V:1
"^Dear pity, how?"!p! c4 c2 d2 | c4 z2 c2 | c4 z2 A2 | c6"^John Wilbye\n (1574-1638)" B2 | %4
w: Dear pi- ty,|how, Ah!|how, Ah!|how, wouldst|
 c2 A2 G4 |[M:4/4] A4 A4 | A2 G2 A4 | z2 G2 A4- | A2 G2 A2 (F2 | E2 F4) E2 | F4!f! c4 | d4 B4 | %12
w: thou be- come|her! Dear|pi- ty, how,|Ah! how,|* wouldst thou be\-|* * come|her! That|best be-|
 c2 c2 c3 d | e2 f2 d4 | c4 z4 | _e6 dc | B4 d4- | d2 cB A4 | A6 GF | G2 g4 fe | d2 c2 d4 | %21
w: com- eth beau- ty's|best at- tir-|ing;|Shall my de-|sert, shall|* my de- sert,|shall my de-|sert, shall my de-|sert de- serve|
 e2 f3 f e2 | f4 z4 | f2 f4 e2 | d2 d2 c2 c2 | =B2 c2 (c2 B2) | c4 z4 |!p! c2 c4 B2 | A2 F2 F2 G2 | %29
w: no fa- vour from|her?|But still to|waste my- self in|deep ad- mir\- *|ing,|but still to|waste my- self in|
 E2 F4 E2 | F2!f! F2 F2 F2 | c6 c2 | A2 F4 AA | B4 F4 | z2 f2 f2 c2 | d6 c2 | d2 B4 AA | B4 F4 | %38
w: deep ad- mir-|ing, Like him that|calls to|e- cho to re-|lieve him,|like him that|calls to|e- cho to re-|lieve him,|
 z4 z2 c2 | c3 B A3 G | F2 f2 f3 _e | d2 d2 c4- | c2!p! B2 B4- | B4 A4 | G8 | A8 | z8 | %47
w: Still|tells and hears the|tale, still tells and|hears the tale,|* Oh! tale|* that|grieves|him.||
 z2!f! c2 c2 c2 | f6 f2 | d2 B4 AA | B4 F4 | z2 f2 f2 c2 | d6 c2 | d2 B4 AA | G2 G2 z2 f2 | %55
w: Like him that|calls to|e- cho to re-|lieve him,|like him that|calls to|e- cho to re-|lieve him, Still|
 f3 _e d3 c | B2 F2 F3 _E | D2 D2 G2!p! F2 | E4 F4- | F4 E4 | F16 |] %61
w: tells and hears the|tale, still tells and|hears the tale, Oh!|tale that|* grieves|him.|
V:2
 z4!p! A4 | A2 G2 A4 | z2 G2 A4- | A2 G2 A2 (F2 | E2 F4) E2 |[M:4/4] F2 c2 c2 d2 | c4 z2 c2 | %7
w: Dear|pi- ty, how,|Ah! how,|* wouldst thou be|* * come|her! Dear pi- ty,|how, Ah!|
 c4 z2 A2 | c6 =B2 | c2 A2 G4 | A8 | z2!f! F2 F2 F2 | E3 F G2 (AB) | c2 A2 G4 | G4 c4- | %15
w: how, Ah!|how wouldst|thou be- cme|her!|That best be-|com- eth beau- ty's *|best at- tir-|ing; Shall|
 c2 BA G4- | G2 B4 AG | F4 f4- | f2 ed c2 c2- | c2 BA G2 A2 | =B2 c2 c2 B2 | c2 A2 G4 | %22
w: * my de- sert,|* shall my de-|sert, shall|* my de- sert, shall|* my de- sert, shall|my de- sert de-|serve no fa-|
 A3 G AB c2- | cc =B2 c4 | _B2 B4 A2 | G2 _E2 D2 D2 | =E3 F G4 | F2!p! f2 e2 d2 | f2 c2 d2 d2 | %29
w: vour, de- serve no fa\-|* vour from her?|But still to|waste my- self in|deep ad- mir-|ing, But still to|waste my- self in|
 c2 A2 G4 | A8 | z8 | z2!f! c2 c2 c2 | f6 f2 | d2 B4 AA | B4 F4 | z2 f2 f2 c2 | d6 c2 | d2 B4 AA | %39
w: deep ad- mir-|ing,||Like him that|calls to|e- cho to re-|lieve him,|like him that|calls to|e- cho to re-|
 G2 G2 z2 f2 | f3 _e d3 c | B2 F2 F3 _E | D2 D2 G2!p! F2 | E4 F4- | F4 E4 | F2!f! F2 F2 F2 | %46
w: lieve him, Still|tells and hears the|tale, still tells and|hears the tale, Oh!|tale that|* grieves|him. Like him that|
 c6 c2 | A2 F4 AA | B4 F4 | z2 f2 f2 c2 | d6 c2 | d2 B4 AA | B4 F4 | z4 z2 c2 | c3 B A3 G | %55
w: calls to|e- cho to re-|lieve him,|like him that|calls to|e- cho to re-|lieve him,|Still|tells and hears the|
 F2 f2 f3 _e | d2 d2 c4- | c2!p! B2 B4- | B4 A4 | G8 | A16 |] %61
w: tale, still tells and|hears the tale,|* Oh! tale|* that|grieves|him.|
V:3
 z4!p! f4 | f2 e2 f4 | z2 c2 f4- | f2 e2 f2 d2 | c8 |[M:4/4][K:treble-8] F4 f4 | f2 e2 f4 | %7
w: Dear|pi- ty, how,|Ah! how,|* wouldst thou be|come|her! Dear|pi- ty, how,|
 z2 c2 f4- | f2 e2 f2 d2 | c8 | F4!f! F4 | B4 d4 | c3 d e2 f2 | c2 F2 G4 | c8 | c6 BA | G4 B4- | %17
w: Ah! how|* wouldst thou be-|come|her! That|best be-|com- eth beau- ty's|best at- tir-|ing;|Shall my de-|sert, shall|
 B2 AG F4 | f6 ed | c3 d e2 f2 | g2 a2 g4 | c8 | f2 f4 e2 | d4 c4 | d2 B2 F2 F2 | G4 G4 | %26
w: * my de- sert,|shall my de-|sert de- sserve no|fa- vour from|her?|But still to|waste my-|self in deep ad-|mir- ing,|
!p! c2 c4 B2 | A4 G4 | F2 A2 B2 B2 | c8 | F4 z4 | z2!f! c2 c2 c2 | f6 f2 | d2 B4 AA | B4 F4 | %35
w: but still to|waste my-|self in deep ad-|mir-|ing,|Like him that|calls to|e- cho to re-|lieve him,|
 B2 B4 A2 | B4 f4 | B2 B4 AA | B4 F4 | c4 f3 _e | d3 c B4- | B4!p! A4 | B4 B4 | c8- | c8 | F4 z4 | %46
w: like him that|calls to|e- cho to re-|lieve him,|Still tells and|hears the tale,|* Oh!|tale that|grieves||him.|
 z2!f! c2 c2 c2 | f6 f2 | d2 B4 AA | B4 F4 | B2 B4 A2 | B4 f4 | B2 B4 AA | B4 F4 | c4 f3 _e | %55
w: Like him that|calls to|e- cho to re-|lieve him,|like him that|calls to|e- cho to re-|lieve him,|Still tells and|
 d3 c B4- | B4!p! A4 | B4 B4 | c8- | c8 | F16 |] %61
w: hears the tale,|* Oh!|tale that|grieves||him.|
V:4
!p! c4 c2 d2 | c4 z2 c2 | c4 z2 A2 | c6 B2 | c2 A2 G4 |[M:4/4] A4 A4 | A2 G2 A4 | z2 G2 A4- | %8
 A2 G2 A2 F2 | E2 F4 E2 | F4!f! c4 | d4 B4 | c2 c2 c3 d | e2 f2 d4 | c4 x4 | _e6 dc | B2 x2 d4- | %17
 d2 cB A4 | A6 GF | G2 g4 fe | d2 c2 d4 | e2 f3 f e2 | f4 x4 | f2 f4 e2 | d2 d2 c2 c2 | %25
 =B2 c2 c2 B2 | c4 x4 |!p! c2 c4 B2 | A2 F2 F2 G2 | E2 F4 E2 | F2!f! F2 F2 F2 | c6 c2 | A2 F4 AA | %33
 B4 F4 | x2 f2 f2 c2 | d6 c2 | d2 B4 AA | B4 F4 | x4 x2 c2 | c3 B A3 G | F2 f2 f3 _e | d2 d2 c4- | %42
 c2!p! B2 B4- | B4 A4 | G8 | A8 | x8 | x2 c2 c2 c2 | f6 f2 | d2 B4 AA | B4 F4 | x2 f2 f2 c2 | %52
 d6 c2 | d2 B4 AA | G2 G2 z2 f2 | f3 _e d3 c | B2 F2 F3 _E | D2 D2 G2 F2 | E4 F4- | F4 E4 | F16 |] %61
V:5
 z4 A4 | A2 G2 A4 | z2 G2 A4- | A2 G2 A2 F2 | E2 F4 E2 |[M:4/4] F2 c2 c2 d2 | c4 z2 c2 | c4 z2 A2 | %8
 c6 =B2 | c2 A2 G4 | A8 | z2 F2 F2 F2 | E3 F G2 AB | c2 A2 G4 | G4 c4- | c2 BA G4- | G2 B2- B2 AG | %17
 F4 f4- | f2 ed c2 c2- | c2 BA G2 A2 | =B2 c2 c2 B2 | c2 A2 G4 | A3 G AB c2- | cc =B2 c4 | %24
 _B2 B4 A2 | G2 _E2 D2 D2 | =E3 F G4 | F2 f2 e2 d2 | f2 c2 d2 d2 | c2 A2 G4 | A8 | x8 | %32
 x2 c2 c2 c2 | f6 f2 | d2 B4 AA | B4 F4 | x2 f2 f2 c2 | d6 c2 | d2 B4 AA | G2 G2 z2 f2 | %40
 f3 _e d3 c | B2 F2 F3 _E | D2 D2 G2 F2 | E4 F4- | F4 E4 | F2!f! F2 F2 F2 | c6 c2 | A2 F4 AA | %48
 B4 F4 | x2 f2 f2 c2 | d6 c2 | d2 B4 AA | B4 F4 | x4 x2 c2 | c3 B A3 G | F2 f2 f3 _e | d2 d2 c4- | %57
 c2 B2 B4- | B4 A4 | G8 | A16 |] %61
V:6
 x4[I:staff -1] F4 | F2 E2 F4 |[I:staff +1] x2[I:staff -1] C2 F4- | F2 E2 F2 D2 |[I:staff +1] C8 | %5
[M:4/4] F,4[I:staff -1] F4 | F2 E2 F4 |[I:staff +1] x2[I:staff -1] C2 F4- | F2 E2 F2 D2 | %9
[I:staff +1] C8 | F,4 F,4 | B,4 D4 | C3 D E2 F2 | C2 F,2 G,4 | C8 | C6 B,A, | G,4 B,4- | %17
 B,2 A,G, F,4 |[I:staff -1] F6 ED |[I:staff +1] C3 D E2 F2 |[I:staff -1] G2 A2 G4 | %21
[I:staff +1] C8 | F2 F4 E2 | D4 C4 | D2 B,2 F,2 F,2 | G,4 G,4 | C2 C4 B,2 | A,4 G,4 | %28
 F,2 A,2 B,2 B,2 | C8 | F,4 z4 | z2 C2 C2 C2 | F6 F2 | D2 B,4 A,A, | B,4 F,4 | B,2 B,4 A,2 | %36
 B,4 F4 | B,2 B,4 A,A, | B,4 F,4 | C4 F3 _E | D3 C B,4- | B,4 A,4 | B,4 B,4 | C8- | C8 | F,4 z4 | %46
 z2 C2 C2 C2 | F6 F2 | D2 B,4 A,A, | B,4 F,4 | B,2 B,4 A,2 | B,4 F4 | B,2 B,4 A,A, | B,4 F,4 | %54
 C4[I:staff -1] F3 _E |[I:staff +1] D3 C B,4- | B,4!p! A,4 | B,4 B,4 | C8- | C8 | F,16 |] %61

